dist/svg/u1F1F7.svg

<svg id="Layer_1" data-name="Layer 1" xmlns="http://www.w3.org/2000/svg" viewBox="0 0 40 40"><defs><style>.cls-1{fill:#afb7c0;}.cls-2{fill:none;}</style></defs><path class="cls-1" d="M28.5,7.1a4.405,4.405,0,0,1,4.4,4.4v17a4.405,4.405,0,0,1-4.4,4.4h-17a4.405,4.405,0,0,1-4.4-4.4v-17a4.405,4.405,0,0,1,4.4-4.4h17m0-3.6h-17a8,8,0,0,0-8,8v17a8,8,0,0,0,8,8h17a8,8,0,0,0,8-8v-17a8,8,0,0,0-8-8Z"/><path class="cls-1" d="M17.289,22.648v6.361H13.448V11.1h7.225c3.96,0,6.336,2.4,6.336,5.833A5.615,5.615,0,0,1,23.6,22.144l4.488,6.865H23.745l-3.864-6.361Zm2.255-3.072c2.329,0,3.5-.912,3.5-2.664,0-1.681-1.176-2.664-3.5-2.664H17.289v5.328Z"/><rect class="cls-2" width="40" height="40"/></svg>

<?xml version="1.0" encoding="UTF-8"?><svg id="a" xmlns="http://www.w3.org/2000/svg" viewBox="0 0 40 40"><g><path d="M28.5,3.5H11.5C7.082,3.5,3.5,7.082,3.5,11.5V28.5c0,4.418,3.582,8,8,8H28.5c4.418,0,8-3.582,8-8V11.5c0-4.418-3.582-8-8-8Zm4.4,25c0,2.426-1.974,4.4-4.4,4.4H11.5c-2.426,0-4.4-1.974-4.4-4.4V11.5c0-2.426,1.974-4.4,4.4-4.4H28.5c2.426,0,4.4,1.974,4.4,4.4V28.5Z" fill="#afb7c0"/><path d="M27.009,16.936c0-3.432-2.376-5.833-6.336-5.833h-7.225V29.009h3.84v-6.36h2.592l3.864,6.36h4.344l-4.488-6.865c1.944-.864,3.408-2.736,3.408-5.208Zm-7.465,2.641h-2.256v-5.329h2.256c2.329,0,3.504,.984,3.504,2.664,0,1.752-1.176,2.665-3.504,2.665Z" fill="#afb7c0"/></g><rect width="40" height="40" fill="none"/></svg>
